src/images/svg/payment-methods/payment-help-pay.svg

<svg width="128" height="80" viewBox="0 0 128 80" fill="none" xmlns="http://www.w3.org/2000/svg">
<path d="M102.814 48.9723L97.2804 63.5731C96.852 64.7596 96.1475 65.8272 95.2251 66.6877C94.3388 67.5124 93.1786 67.9798 91.9682 68H91.5808L90.5373 67.913V64.4506L91.2172 64.5138L91.7468 64.5455H91.9128C92.1002 64.5455 92.2857 64.5078 92.4583 64.4348C92.6595 64.3456 92.844 64.2226 93.0037 64.0711C93.4489 63.62 93.7961 63.0817 94.0235 62.4901L94.0946 62.3083L88.316 48.9881H92.0472L95.8654 57.6838L99.1539 48.9881H101.209L102.814 48.9723ZM85.818 49.8972C86.9137 50.9554 87.4914 52.4401 87.399 53.9605V62.419H84.561V60.8379H84.4346C84.0112 61.4477 83.4472 61.9466 82.7903 62.2925C82.0419 62.692 81.2037 62.8934 80.3555 62.8775C79.4561 62.8832 78.5679 62.6774 77.7626 62.2767C77.0348 61.9277 76.4208 61.3795 75.9919 60.6956C75.5633 59.9799 75.3442 59.1582 75.3595 58.3241C75.3135 57.0302 75.9041 55.7958 76.9405 55.0198C78.0843 54.1824 79.4763 53.7537 80.8931 53.8024C81.6159 53.7934 82.3374 53.8676 83.0433 54.0237C83.5589 54.1368 84.0621 54.301 84.5452 54.5138V53.8261C84.5673 53.0446 84.2257 52.2971 83.6203 51.8024C82.9518 51.26 82.109 50.9791 81.2488 51.0119C80.5744 51.0089 79.9085 51.1632 79.3041 51.4625C78.725 51.7325 78.2223 52.1428 77.8417 52.6561L75.8101 51.0751C76.4102 50.2469 77.2095 49.5834 78.1342 49.1462C79.1227 48.6811 80.2038 48.446 81.2962 48.4585C82.9306 48.3533 84.5448 48.8669 85.818 49.8972ZM75.897 29.0514C77.7427 29.0817 79.4728 29.9555 80.5927 31.4229L80.6085 31.4625C83.2015 35.016 83.2015 39.8378 80.6085 43.3913C79.4886 44.8587 77.7585 45.7325 75.9128 45.7628C74.3234 45.7608 72.8116 45.0755 71.7626 43.8814V62.4743H67.9049V29.3518H71.7626V30.9328C72.808 29.7429 74.3131 29.0579 75.897 29.0514ZM79.0749 56.6087C78.5642 57.0133 78.2718 57.6332 78.2844 58.2846C78.2687 58.8784 78.5356 59.4445 79.0037 59.8103C79.5294 60.2231 80.1858 60.4334 80.8535 60.4032C81.5227 60.4242 82.1847 60.2601 82.7666 59.9289V59.9051C83.3184 59.5827 83.7742 59.1188 84.0867 58.5613C84.4007 58.0041 84.5641 57.3747 84.5611 56.7352C84.115 56.4909 83.6395 56.3049 83.146 56.1818C82.5902 56.0444 82.0188 55.9806 81.4464 55.9921C80.6086 55.9203 79.7716 56.138 79.0749 56.6087ZM53.1618 30.0158C54.3315 30.7056 55.2739 31.7223 55.8733 32.9407C56.5105 34.2441 56.8301 35.6798 56.8061 37.1304C56.8001 37.5011 56.7684 37.8709 56.7112 38.2372H44.3871C44.4259 39.5527 44.9964 40.7963 45.9682 41.6838C47.5992 43.0816 49.935 43.2971 51.7942 42.2213C52.5248 41.7672 53.1264 41.133 53.5413 40.3794L56.4741 41.7708C55.7642 43.0422 54.7445 44.1136 53.5097 44.8854C52.1876 45.673 50.6685 46.0679 49.1302 46.0237C47.6483 46.0402 46.1895 45.655 44.9089 44.9091C43.6707 44.1862 42.6559 43.1359 41.9761 41.8735C41.2616 40.5287 40.8998 39.0246 40.9247 37.502C40.9058 36.0194 41.2476 34.5544 41.9207 33.2332C42.572 31.9429 43.5575 30.8509 44.7745 30.0711C46.0277 29.2931 47.4817 28.9 48.9563 28.9407C50.431 28.8996 51.8878 29.272 53.1618 30.0158ZM63.7863 12V45.8656H59.6994V12H63.7863ZM28.2053 12.5138V28.5692L28.4108 28.419L28.6426 28.2893C29.6564 27.7477 30.7922 27.4707 31.9444 27.4862L32.1843 27.4844C33.9395 27.5042 35.6144 28.2426 36.814 29.5336C38.0331 30.9921 38.667 32.8515 38.5927 34.751V45.3518H34.6401V35.3518C34.6985 34.4791 34.434 33.6153 33.897 32.9249C33.6813 32.6725 33.4109 32.4725 33.1065 32.3399C32.6962 32.179 32.2587 32.0985 31.818 32.1028C30.8529 32.0794 29.9249 32.4743 29.2725 33.1858C28.476 34.2117 28.0849 35.4948 28.1737 36.7905V45.3518H24.2686V12.5138H28.2053ZM75.5729 31.7628C73.8417 31.7708 72.4978 34.2213 72.4978 37.3834C72.4978 40.5455 73.8417 43.0119 75.5729 43.0119C77.312 43.004 78.6559 40.5375 78.6559 37.3834C78.6559 34.2292 77.3041 31.7549 75.5729 31.7628ZM48.9326 31.9289C47.916 31.8996 46.9237 32.2426 46.1421 32.8933C45.3544 33.5982 44.8024 34.5282 44.561 35.5573L53.2804 35.581C53.2277 34.987 53.0441 34.4119 52.7429 33.8972C52.3985 33.3094 51.9013 32.8259 51.3041 32.498C50.5805 32.095 49.7603 31.8982 48.9326 31.9289Z" fill="#333333"/>
<path d="M62.5296 53.8497C63.4989 53.8497 64.2846 54.6354 64.2846 55.6047V55.6126C64.2846 56.5818 63.4989 57.3675 62.5296 57.3675H25.7549C24.7857 57.3675 24 56.5818 24 55.6126V55.6047C24 54.6354 24.7857 53.8497 25.7549 53.8497H62.5296ZM94.0158 13.8497C97.4466 13.8497 99.892 14.577 101.352 16.0315C102.776 17.3969 103.569 19.2922 103.541 21.2647C103.533 22.388 103.299 23.4981 102.854 24.5296C102.22 25.8607 101.296 27.033 100.15 27.9604C99.0997 28.909 97.9993 29.8009 96.8537 30.6323L95.3676 31.6442C90.7036 34.8537 88.3689 37.9762 88.3636 41.0118V41.7548H104.174V45.0987H84.5296V41.9367C84.5988 40.0508 85.1222 38.2094 86.0553 36.5691C87.3403 34.3301 89.0896 32.392 91.1858 30.8853L93.2332 29.3043C95.9736 27.1962 97.7154 25.6152 98.4585 24.5612C99.1546 23.6138 99.5362 22.4719 99.5494 21.2964C99.5329 20.1028 98.9993 18.9751 98.087 18.2054C96.8977 17.2392 95.3866 16.759 93.8577 16.8616C92.5409 16.7736 91.2326 17.1299 90.1423 17.8734C89.4174 18.3691 88.9691 19.1779 88.9328 20.0552V20.245H85.2964V20.0473C85.3104 18.9433 85.6914 17.8753 86.3794 17.0118C87.1677 16.014 88.1882 15.2242 89.3518 14.7114C90.8255 14.089 92.417 13.795 94.0158 13.8497Z" fill="#A9C51A"/>
</svg>

<svg width="128" height="80" fill="none" xmlns="http://www.w3.org/2000/svg"><path d="m102.814 48.972-5.533 14.601a7.951 7.951 0 0 1-2.056 3.115A4.901 4.901 0 0 1 91.968 68h-.387l-1.043-.087v-3.462l.68.063.53.032h.165a1.4 1.4 0 0 0 .546-.111c.2-.09.385-.212.545-.364a4.6 4.6 0 0 0 1.02-1.58l.07-.183-5.778-13.32h3.731l3.819 8.696 3.288-8.696h2.056l1.604-.016zm-16.996.925a5.21 5.21 0 0 1 1.581 4.064v8.458h-2.838v-1.581h-.126a4.625 4.625 0 0 1-1.645 1.454c-.748.4-1.586.601-2.434.585-.9.006-1.788-.2-2.593-.6a4.268 4.268 0 0 1-1.77-1.581 4.459 4.459 0 0 1-.633-2.372 3.952 3.952 0 0 1 1.58-3.304 6.324 6.324 0 0 1 3.953-1.218 9.415 9.415 0 0 1 2.15.222 7.954 7.954 0 0 1 1.502.49v-.688a2.522 2.522 0 0 0-.924-2.024 3.55 3.55 0 0 0-2.372-.79 4.338 4.338 0 0 0-1.945.45c-.579.27-1.082.68-1.462 1.194l-2.032-1.58a6.08 6.08 0 0 1 2.324-1.93c.989-.465 2.07-.7 3.162-.688a6.522 6.522 0 0 1 4.522 1.44zm-9.92-20.846a6.031 6.031 0 0 1 4.695 2.372l.016.04a10.119 10.119 0 0 1 0 11.928 6.031 6.031 0 0 1-4.696 2.372 5.533 5.533 0 0 1-4.15-1.882v18.593h-3.858V29.352h3.858v1.58a5.533 5.533 0 0 1 4.134-1.88zm3.177 27.558a2.087 2.087 0 0 0-.79 1.676c-.016.593.25 1.16.719 1.525a2.79 2.79 0 0 0 1.85.593 3.636 3.636 0 0 0 1.913-.474v-.024a3.59 3.59 0 0 0 1.32-1.344 3.684 3.684 0 0 0 .474-1.826 5.937 5.937 0 0 0-1.415-.553 6.535 6.535 0 0 0-1.7-.19 3.676 3.676 0 0 0-2.37.617zM53.162 30.016a6.965 6.965 0 0 1 2.712 2.925 9.193 9.193 0 0 1 .932 4.19c-.006.37-.037.74-.094 1.106H44.386a4.861 4.861 0 0 0 1.581 3.447 5.06 5.06 0 0 0 5.826.537 5.019 5.019 0 0 0 1.748-1.842l2.932 1.392a8.64 8.64 0 0 1-2.964 3.114 8.102 8.102 0 0 1-4.38 1.139 8.206 8.206 0 0 1-4.22-1.115 7.794 7.794 0 0 1-2.934-3.035 9.005 9.005 0 0 1-1.051-4.372 9.146 9.146 0 0 1 .996-4.269 8.08 8.08 0 0 1 2.854-3.162 7.535 7.535 0 0 1 4.181-1.13 7.905 7.905 0 0 1 4.206 1.075zM63.787 12v33.866H59.7V12h4.087zm-35.581.514v16.055l.205-.15.232-.13a6.813 6.813 0 0 1 3.302-.803l.24-.002a6.42 6.42 0 0 1 4.63 2.05 7.668 7.668 0 0 1 1.778 5.217v10.6H34.64v-10a3.565 3.565 0 0 0-.743-2.426 2.191 2.191 0 0 0-.79-.585 3.438 3.438 0 0 0-1.289-.237 3.343 3.343 0 0 0-2.545 1.083 5.288 5.288 0 0 0-1.1 3.605v8.56H24.27V12.515h3.937zm47.367 19.249c-1.731.008-3.075 2.458-3.075 5.62s1.344 5.629 3.075 5.629c1.74-.008 3.083-2.474 3.083-5.629 0-3.154-1.352-5.628-3.083-5.62zm-26.64.166a4.174 4.174 0 0 0-2.79.964 5.154 5.154 0 0 0-1.582 2.664l8.72.024a4.04 4.04 0 0 0-.538-1.684 3.772 3.772 0 0 0-1.439-1.399 4.53 4.53 0 0 0-2.371-.57z" fill="#333"/><path d="M62.53 53.85c.969 0 1.755.785 1.755 1.755v.008c0 .969-.786 1.755-1.755 1.755H25.755c-.97 0-1.755-.786-1.755-1.755v-.008c0-.97.786-1.755 1.755-1.755H62.53zm31.486-40c3.43 0 5.876.727 7.336 2.182a7.11 7.11 0 0 1 2.189 5.233 8.393 8.393 0 0 1-.687 3.265 9.878 9.878 0 0 1-2.704 3.43c-1.05.95-2.15 1.841-3.296 2.672l-1.486 1.012c-4.664 3.21-7 6.332-7.004 9.368v.743h15.81v3.344H84.53v-3.162c.069-1.886.592-3.727 1.525-5.368a18.088 18.088 0 0 1 5.13-5.684l2.048-1.58c2.74-2.109 4.482-3.69 5.225-4.744a5.62 5.62 0 0 0 1.091-3.264 4.119 4.119 0 0 0-1.462-3.091 6.063 6.063 0 0 0-4.23-1.344 5.897 5.897 0 0 0-3.715 1.012 2.783 2.783 0 0 0-1.21 2.181v.19h-3.636v-.198a4.973 4.973 0 0 1 1.083-3.035 7.795 7.795 0 0 1 2.973-2.3 11.02 11.02 0 0 1 4.664-.862z" fill="#A9C51A"/></svg>
